public/images/icons/zodiac/aquarius.svg

<svg xmlns="http://www.w3.org/2000/svg" width="48" height="48" fill="none" stroke="#c9a84c" stroke-linecap="round" stroke-linejoin="round" stroke-width="2" viewBox="0 0 48 48"><path d="m6 18 6-4 6 4 6-4 6 4 6-4 6 4M6 30l6-4 6 4 6-4 6 4 6-4 6 4"/></svg>

<svg xmlns="http://www.w3.org/2000/svg" viewBox="0 0 48 48" width="48" height="48" fill="none" stroke="#C9A84C" stroke-width="2" stroke-linecap="round" stroke-linejoin="round">
  <!-- Aquarius: Water waves glyph ♒ -->
  <path d="M6 18 L12 14 L18 18 L24 14 L30 18 L36 14 L42 18"/>
  <path d="M6 30 L12 26 L18 30 L24 26 L30 30 L36 26 L42 30"/>
</svg>
